!!!OTL: KRONE KRANE WICKLE SCHWANE
!!!ARE: Europa, Mitteleuropa, Deutschland, Kassel
!!!SCT: K2333
!!!YEM: Copyright 1995, estate of Helmut Schaffrath.
**kern
*ICvox
*Ivox
*M2/4
*k[b-]
*F:
=1
{8cc
8cc
8a
8dd
=2
8cc
8cc
8a
8a}
=3
{8cc
8cc
8dd
8dd
=4
8cc
8cc
8a
8f}
=5
{8cc
8cc
8dd
8dd
=6
8cc
8cc
8a}
{8f
=7
8cc
8cc
8dd
8dd
=8
4cc
8a
8r}
=9
{8cc
8cc
8dd
8dd
=10
8cc
8cc
8a
8f}
=11
{8cc
8cc
8dd
8dd
=12
4cc
8a
8r}
=13
{8cc
8cc
8dd
8dd
=14
4cc
8a
8r}
=15
{8.ff
16cc
8b-
8a
=16
4a
4g}
==
!!!AGN: Kinder - Lied, Reigen, Tanz - Spiel
!!!ONB: ESAC (Essen Associative Code) Database: KINDER
!!!AMT: simple duple
!!!AIN: vox
!!!EED: Helmut Schaffrath
!!!EEV: 1.0
*-
